svgs/sharp-solid/tower-observation.svg

<svg xmlns="http://www.w3.org/2000/svg" viewBox="0 0 512 512"><!--! Font Awesome Pro 6.6.0 by @fontawesome - https://fontawesome.com License - https://fontawesome.com/license (Commercial License) Copyright 2024 Fonticons, Inc. --><path d="M64 96L256 0 448 96l0 32-32 0 0 128-36.9 0 32 192 68.9 0 32 0 0 64-32 0-95.5 0c-.4 0-.8 0-1.1 0l-254.8 0c-.4 0-.8 0-1.1 0L32 512 0 512l0-64 32 0 68.9 0 32-192L96 256l0-128-32 0 0-32zM314.5 448L256 399.2 197.5 448l117 0zM193.1 284.3L256 336.8l62.9-52.5L314.2 256l-116.5 0-4.7 28.3zm-9.1 54.9l-11.2 67L218.5 368l-34.6-28.8zM293.5 368l45.8 38.1-11.2-67L293.5 368zM352 128l-192 0 0 32 192 0 0-32z"/></svg>

<svg xmlns="http://www.w3.org/2000/svg" viewBox="0 0 512 512"><!--! Font Awesome Pro 6.4.2 by @fontawesome - https://fontawesome.com License - https://fontawesome.com/license (Commercial License) Copyright 2023 Fonticons, Inc. --><path d="M64 96L256 0 448 96v32H416V256H379.1l32 192H480h32v64H480 384.5c-.4 0-.8 0-1.1 0H128.6c-.4 0-.8 0-1.1 0H32 0V448H32h68.9l32-192H96V128H64V96zM314.5 448L256 399.2 197.5 448h117zM193.1 284.3L256 336.8l62.9-52.5L314.2 256H197.8l-4.7 28.3zm-9.1 54.9l-11.2 67L218.5 368l-34.6-28.8zM293.5 368l45.8 38.1-11.2-67L293.5 368zM352 128H160v32H352V128z"/></svg>
